Catalina-light/actions/22/path-division.svg

<svg xmlns="http://www.w3.org/2000/svg" viewBox="0 0 22 22">
  <defs id="defs3051">
    <style type="text/css" id="current-color-scheme">
      .ColorScheme-Text {
        color:#4d4d4d;
      }
      .ColorScheme-Highlight {
        color:#3daee9;
      }
      </style>
  </defs>
 <path 
     style="fill:currentColor;fill-opacity:1;stroke:none" 
     d="M 12.357422 3 A 6.0156658 6.0156658 0 0 0 10.619141 3.4648438 L 11.292969 4.6328125 A 4.6788512 4.6788512 0 0 1 12.357422 4.3476562 L 12.357422 3 z M 13.695312 3.0019531 L 13.695312 4.3496094 A 4.6788512 4.6788512 0 0 1 14.759766 4.6328125 L 15.431641 3.4707031 A 6.0156658 6.0156658 0 0 0 13.695312 3.0019531 z M 9.4628906 4.1367188 A 6.0156658 6.0156658 0 0 0 8.1875 5.4101562 L 9.3554688 6.0800781 A 4.6788512 4.6788512 0 0 1 10.130859 5.296875 L 9.4628906 4.1367188 z M 16.589844 4.1367188 L 15.919922 5.3027344 A 4.6788512 4.6788512 0 0 1 16.703125 6.078125 L 17.863281 5.4101562 A 6.0156658 6.0156658 0 0 0 16.589844 4.1367188 z M 18.535156 6.5664062 L 17.367188 7.2402344 A 4.6788512 4.6788512 0 0 1 17.652344 8.3046875 L 19 8.3046875 A 6.0156658 6.0156658 0 0 0 18.535156 6.5664062 z M 7.5214844 6.5683594 A 6.0156658 6.0156658 0 0 0 7.0546875 8.3046875 L 3 8.3046875 L 3 19 L 13.695312 19 L 13.695312 14.947266 A 6.0156658 6.0156658 0 0 0 15.433594 14.482422 L 14.759766 13.316406 A 4.6788512 4.6788512 0 0 1 13.695312 13.597656 L 13.695312 8.3046875 L 8.4023438 8.3046875 A 4.6788512 4.6788512 0 0 1 8.6835938 7.2402344 L 7.5214844 6.5683594 z M 4.3359375 9.6425781 L 7.0527344 9.6425781 A 6.0156658 6.0156658 0 0 0 12.357422 14.945312 L 12.357422 17.664062 L 4.3359375 17.664062 L 4.3359375 9.6425781 z M 8.4003906 9.6425781 L 12.357422 9.6425781 L 12.357422 13.597656 A 4.6788512 4.6788512 0 0 1 8.4003906 9.6425781 z M 17.650391 9.6425781 A 4.6788512 4.6788512 0 0 1 17.367188 10.707031 L 18.529297 11.378906 A 6.0156658 6.0156658 0 0 0 18.998047 9.6425781 L 17.650391 9.6425781 z M 16.697266 11.867188 A 4.6788512 4.6788512 0 0 1 15.921875 12.650391 L 16.589844 13.8125 A 6.0156658 6.0156658 0 0 0 17.863281 12.537109 L 16.697266 11.867188 z "
     class="ColorScheme-Text"
     />
 <path 
     style="fill:currentColor;fill-opacity:0.6;stroke:naone" 
     class="ColorScheme-Text"
     d="M 4.3359375 9.6425781 L 4.3359375 17.664062 L 12.357422 17.664062 L 12.357422 9.6425781 L 4.3359375 9.6425781 z "
     />
</svg>

<svg viewBox="0 0 22 22" xmlns="http://www.w3.org/2000/svg">
<defs>
<style id="current-color-scheme" type="text/css">.ColorScheme-Text {
        color:#363636;
      }
      .ColorScheme-Highlight {
        color:#3daee9;
      }</style>
</defs>
<path class="ColorScheme-Text" d="m12.357 3a6.0157 6.0157 0 0 0-1.7383 0.46484l0.67383 1.168a4.6789 4.6789 0 0 1 1.0645-0.28516v-1.3477zm1.3379 0.0019531v1.3477a4.6789 4.6789 0 0 1 1.0645 0.2832l0.67188-1.1621a6.0157 6.0157 0 0 0-1.7363-0.46875zm-4.2324 1.1348a6.0157 6.0157 0 0 0-1.2754 1.2734l1.168 0.66992a4.6789 4.6789 0 0 1 0.77539-0.7832l-0.66797-1.1602zm7.127 0-0.66992 1.166a4.6789 4.6789 0 0 1 0.7832 0.77539l1.1602-0.66797a6.0157 6.0157 0 0 0-1.2734-1.2734zm1.9453 2.4297-1.168 0.67383a4.6789 4.6789 0 0 1 0.28516 1.0645h1.3477a6.0157 6.0157 0 0 0-0.46484-1.7383zm-11.014 0.0019532a6.0157 6.0157 0 0 0-0.4668 1.7363h-4.0547v10.695h10.695v-4.0527a6.0157 6.0157 0 0 0 1.7383-0.46484l-0.67383-1.166a4.6789 4.6789 0 0 1-1.0645 0.28125v-5.293h-5.293a4.6789 4.6789 0 0 1 0.28125-1.0645l-1.1621-0.67188zm-3.1855 3.0742h2.7168a6.0157 6.0157 0 0 0 5.3047 5.3027v2.7188h-8.0215v-8.0215zm4.0645 0h3.957v3.9551a4.6789 4.6789 0 0 1-3.957-3.9551zm9.25 0a4.6789 4.6789 0 0 1-0.2832 1.0645l1.1621 0.67188a6.0157 6.0157 0 0 0 0.46875-1.7363h-1.3477zm-0.95312 2.2246a4.6789 4.6789 0 0 1-0.77539 0.7832l0.66797 1.1621a6.0157 6.0157 0 0 0 1.2734-1.2754l-1.166-0.66992z" fill="#363636"/>
<path class="ColorScheme-Text" d="m4.3359 9.6426v8.0215h8.0215v-8.0215h-8.0215z" fill="#363636" fill-opacity=".6" stroke="naone"/>
</svg>
